!!!COM: Georges Bizet
!!!CNT: Francais
!!!TXO: Francais
!!!OTL: Chanson D'Avril
!!!LYR: Louis Bouilhet
!!!ENC: Jacob Pegg
!!!YOR: Georges Bizet: Twenty Melodies. A Kalmus Classic Edition.
!!!YOR: Miami: Warner Bros. Publications,1990. ISBN 0-7692-4977-9
!!!ODT: 1873/
!!NB: Vocal melody and text only encoded.
!!NB: First instance of melodic material only encoded.
**kern	**silbe
*clef G2	*
*k[b-e-a-]	*
*M2/4	*
!!time signature says "C" but there are two beats per measure.
=4	=4
4r	.
8r	.
{8g	{Le\-
=5	=5
8g	-ve~
8f	~toi!
8b-	le\-
8g	-ve~
=6	=6
4.g	~toi!
8f	le
=7	=7
8f	prin-
8e-	-temps
8b-	vient
8f	de
=8	=8
[4f	nai^-
16f]}	-tre!}
16r	.
{8e-	{La\~
=9	=9
8d	~bas,
8e-	sur
8f	les
8g	val-
=10	=10
8a-	-lons,
8b-	flotte
8cc	un
8dd	re/-
=11	=11
(8ff	-seau-
8ee-)	|
(8dd	ver-
8cc)	|
=12	=12
(4cc-	-meil!
16b-)}	|}
16r	.
{8g	{Tout
=13	=13
8g	fris-
8f	-sonne
8b-	au
8g	jar-
=14	=14
4.g	-din,
8f	tout
=15	=15
8f	chante
8e-	et
8b-	ta
8f	fe-
=16	=16
[4f	-ne^-
16f]}	-tre,}
16r	.
{8e-	{Comme
=17	=17
8d	un
8e-	re-
8f	-gard
8g	jo-
=18	=18
8an	-yeux,
8b-	est
8cc	plei-
8dd	-ne
=19	=19
4ee-	de
(8d	so-
8cc)	|
=20	=20
[4b-	-leil!
8b-]}	|}
8r	.
=21	=21
2r	.
=22	=22
4r	.
8r	.
{8f	{Du
=23	=23
8g	co^-
8an	-te/
8b-	des
8cc	li-
=24	=24
(8ee-	-las
8dd)	|
(8cc	aux
8b-)	|
=25	=25
8an	tou-
8cc	-ffes
8b-	vi-
8d	-o-
=26	=26
[8g	-let-
8g]}	-tes,}
8r	.
{8f	{du
=27	=27
8g	co^-
8an	-te/
8b-	des
8cc	li-
=28	=28
4dd	-las,
4dd	Mou-
=29	=29
8cc	-ches
8cc	et
8dd	pa-
8cc	-pil-
=30	=30
4ee-}	-lons}
8r	.
{8b-	{bru-
=31	=31
8a-	-is-
8a-	-sent
8b-	a\
8a-	la
=32	=32
(4.cc	fois
8g)	Et
=33	=33
8g	le
8f	mu-
8cc	-guet
8b-	sau-
=34	=34
[4g	-va-
16g]}	-ge}
16r	.
{8f	{e/-
=35	=35
8f	-bran-
8e-	-lant
8b-	ses
8g	clo-
=36	=36
[4f	-chet-
16f]}	-tes}
16r	.
{8e-	{A
=37	=37
(8d	re/-
8e-)	|
(8f	-veil-
8g)	|
=38	=38
(8a-	-le/
8b-)	|
(8cc	l'a-
8dd)	|
=39	=39
[2ee-	-mour,
=40	=40
8ee-]}	|}
8r	.
{(8dd-	{l'a-
8cc-)	|
=41	=41
4.ee-	-mour
8cc-	en-
=42	=42
8cc-	-dor-
8cc-	-mi
8a--	dans
8ff-	les
=43	=43
[2ee-	bois!
=44	=44
4ee-]}	|}
8r	.
{8ee-	{A
=45	=45
8ee-	re/-
8ddn	-veil-
8ffn	-le/
8ee-	l'a-
=46	=46
(8g	-mour
8b-)	|
8dd	en-
8ccn	-dor-
=47	=47
(4cc-	-mi
8f)}	|}
8r	.
=48	=48
{4.a-	{dans
8d	les
=49	=49
2e-}	bois!}
*-	*-
